lib/functional/design/octagon.svg

<svg xmlns="http://www.w3.org/2000/svg" fill="none" stroke="currentColor" aria-hidden="true" viewBox="0 0 32 32"><g id="Icon-Octagon"><g clip-path="url(#clip0_8_919)"><g id="size=md (32px)"><g id="Octagon"><path id="Vector" stroke-miterlimit="10" stroke-width="2" d="M20.5625 4.00001H11.4375C11.3077 3.99955 11.179 4.02471 11.0589 4.07404C10.9388 4.12338 10.8296 4.19591 10.7375 4.28751L4.28751 10.7375C4.19591 10.8296 4.12338 10.9388 4.07404 11.0589C4.02471 11.179 3.99955 11.3077 4.00001 11.4375V20.5625C3.99955 20.6924 4.02471 20.821 4.07404 20.9411C4.12338 21.0613 4.19591 21.1705 4.28751 21.2625L10.7375 27.7125C10.8296 27.8041 10.9388 27.8766 11.0589 27.926C11.179 27.9753 11.3077 28.0005 11.4375 28H20.5625C20.6924 28.0005 20.821 27.9753 20.9411 27.926C21.0613 27.8766 21.1705 27.8041 21.2625 27.7125L27.7125 21.2625C27.8041 21.1705 27.8766 21.0613 27.926 20.9411C27.9753 20.821 28.0005 20.6924 28 20.5625V11.4375C28.0005 11.3077 27.9753 11.179 27.926 11.0589C27.8766 10.9388 27.8041 10.8296 27.7125 10.7375L21.2625 4.28751C21.1705 4.19591 21.0613 4.12338 20.9411 4.07404C20.821 4.02471 20.6924 3.99955 20.5625 4.00001V4.00001Z"/></g></g></g></g><defs><clipPath id="clip0_8_919"><rect width="32" height="32" fill="white" rx="5"/></clipPath></defs></svg>

<svg xmlns="http://www.w3.org/2000/svg" fill="none" stroke="currentColor" aria-hidden="true" viewBox="0 0 32 32"><g clip-path="url(#a)"><path stroke-miterlimit="10" stroke-width="2" d="M20.563 4h-9.125a.987.987 0 0 0-.7.288l-6.45 6.45a.988.988 0 0 0-.288.7v9.124a.987.987 0 0 0 .288.7l6.45 6.45a.99.99 0 0 0 .7.288h9.124a.987.987 0 0 0 .7-.288l6.45-6.45a.987.987 0 0 0 .288-.7v-9.125a.987.987 0 0 0-.288-.7l-6.45-6.45a.986.986 0 0 0-.7-.287Z"/></g><defs><clipPath id="a"><rect width="32" height="32" fill="#fff" rx="5"/></clipPath></defs></svg>
